dist/img/facilities.svg

<svg width="184" height="16" viewBox="0 0 184 16" fill="none" xmlns="http://www.w3.org/2000/svg">
<g clip-path="url(#clip0)">
<path d="M13.5 0.5H2.5C1.39543 0.5 0.5 1.39543 0.5 2.5V5.5C0.5 6.60457 1.39543 7.5 2.5 7.5H13.5C14.6046 7.5 15.5 6.60457 15.5 5.5V2.5C15.5 1.39543 14.6046 0.5 13.5 0.5Z" stroke="#6B7A9C" stroke-width="1.2" stroke-linecap="round" stroke-linejoin="round"/>
<path d="M3.5 2.5H12.5" stroke="#6B7A9C" stroke-width="1.2" stroke-linecap="round" stroke-linejoin="round"/>
<path d="M12.5 5.5H3.5C3.23478 5.5 2.98043 5.60536 2.79289 5.79289C2.60536 5.98043 2.5 6.23478 2.5 6.5V7.5H13.5V6.5C13.5 6.23478 13.3946 5.98043 13.2071 5.79289C13.0196 5.60536 12.7652 5.5 12.5 5.5Z" stroke="#6B7A9C" stroke-width="1.2" stroke-linecap="round" stroke-linejoin="round"/>
<path d="M3.5 9.5C3.5 9.5 2.5 9.5 2.5 11C2.5 12.5 3.5 12.5 3.5 14C3.5 15.5 2.5 15.5 2.5 15.5" stroke="#6B7A9C" stroke-width="1.2" stroke-linecap="round" stroke-linejoin="round"/>
<path d="M13.5 9.5C13.5 9.5 12.5 9.5 12.5 11C12.5 12.5 13.5 12.5 13.5 14C13.5 15.5 12.5 15.5 12.5 15.5" stroke="#6B7A9C" stroke-width="1.2" stroke-linecap="round" stroke-linejoin="round"/>
<path d="M8 10.5V14.5" stroke="#6B7A9C" stroke-width="1.2" stroke-linecap="round" stroke-linejoin="round"/>
<path d="M6.26801 11.5L9.732 13.5" stroke="#6B7A9C" stroke-width="1.2" stroke-linecap="round" stroke-linejoin="round"/>
<path d="M6.26801 13.5L9.732 11.5" stroke="#6B7A9C" stroke-width="1.2" stroke-linecap="round" stroke-linejoin="round"/>
</g>
<g clip-path="url(#clip1)">
<path d="M42 0.5H30C29.4477 0.5 29 0.947715 29 1.5V14.5C29 15.0523 29.4477 15.5 30 15.5H42C42.5523 15.5 43 15.0523 43 14.5V1.5C43 0.947715 42.5523 0.5 42 0.5Z" stroke="#6B7A9C" stroke-width="1.2" stroke-linecap="round" stroke-linejoin="round"/>
<path d="M34 2.5H32C31.4477 2.5 31 2.94772 31 3.5V4.5C31 5.05228 31.4477 5.5 32 5.5H34C34.5523 5.5 35 5.05228 35 4.5V3.5C35 2.94772 34.5523 2.5 34 2.5Z" stroke="#6B7A9C" stroke-width="1.2" stroke-linecap="round" stroke-linejoin="round"/>
<path d="M40 2.5H38C37.4477 2.5 37 2.94772 37 3.5V4.5C37 5.05228 37.4477 5.5 38 5.5H40C40.5523 5.5 41 5.05228 41 4.5V3.5C41 2.94772 40.5523 2.5 40 2.5Z" stroke="#6B7A9C" stroke-width="1.2" stroke-linecap="round" stroke-linejoin="round"/>
<path d="M29 5.5H43" stroke="#6B7A9C" stroke-width="1.2" stroke-linecap="round" stroke-linejoin="round"/>
<path d="M29 8.5H43" stroke="#6B7A9C" stroke-width="1.2" stroke-linecap="round" stroke-linejoin="round"/>
</g>
<g clip-path="url(#clip2)">
<path d="M70.8333 1.91669H57.1667C56.7985 1.91669 56.5 2.21516 56.5 2.58335V11.25C56.5 11.6182 56.7985 11.9167 57.1667 11.9167H70.8333C71.2015 11.9167 71.5 11.6182 71.5 11.25V2.58335C71.5 2.21516 71.2015 1.91669 70.8333 1.91669Z" stroke="#6B7A9C" stroke-width="1.2" stroke-linecap="round" stroke-linejoin="round"/>
<path d="M61 14.4167H67" stroke="#6B7A9C" stroke-width="1.2" stroke-linecap="round" stroke-linejoin="round"/>
<path d="M64 11.9167V14.4167" stroke="#6B7A9C" stroke-width="1.2" stroke-linecap="round" stroke-linejoin="round"/>
</g>
<g clip-path="url(#clip3)">
<path d="M95.5 4.00002V14.5C95.5 14.7652 95.3946 15.0196 95.2071 15.2071C95.0196 15.3947 94.7652 15.5 94.5 15.5H89.5C89.2348 15.5 88.9804 15.3947 88.7929 15.2071C88.6054 15.0196 88.5 14.7652 88.5 14.5V11C88.5007 10.0722 88.8698 9.18267 89.5261 8.52687C90.1824 7.87107 91.0722 7.50269 92 7.50269C92.6921 7.50269 93.3687 7.29748 93.9442 6.91302C94.5197 6.52855 94.9683 5.98208 95.2333 5.34269C95.4983 4.70331 95.5678 3.99971 95.4329 3.32085C95.2981 2.64199 94.965 2.01835 94.4758 1.52876C93.9866 1.03917 93.3632 0.705613 92.6844 0.570264C92.0057 0.434915 91.302 0.503846 90.6625 0.768344C90.0229 1.03284 89.4761 1.48103 89.0912 2.05625C88.7062 2.63147 88.5005 3.3079 88.5 4.00002" stroke="#6B7A9C" stroke-width="1.2" stroke-linecap="round" stroke-linejoin="round"/>
<path d="M90.5 13.5027H93.5" stroke="#6B7A9C" stroke-width="1.2" stroke-linecap="round" stroke-linejoin="round"/>
</g>
<g clip-path="url(#clip4)">
<path d="M120.5 9.5H127.5L127.057 12.1573C126.902 13.0914 126.42 13.94 125.697 14.5521C124.975 15.1642 124.058 15.5001 123.111 15.5H116.889C115.942 15.5001 115.025 15.1642 114.303 14.5521C113.58 13.94 113.098 13.0914 112.943 12.1573L112.5 9.5H115.5" stroke="#6B7A9C" stroke-width="1.2" stroke-linecap="round" stroke-linejoin="round"/>
<path d="M120 13.5H116C115.867 13.5 115.74 13.4473 115.646 13.3536C115.553 13.2598 115.5 13.1326 115.5 13V9.5C115.5 9.23478 115.605 8.98043 115.793 8.79289C115.98 8.60536 116.235 8.5 116.5 8.5H119.5C119.765 8.5 120.02 8.60536 120.207 8.79289C120.395 8.98043 120.5 9.23478 120.5 9.5V13C120.5 13.1326 120.447 13.2598 120.354 13.3536C120.26 13.4473 120.133 13.5 120 13.5Z" stroke="#6B7A9C" stroke-width="1.2" stroke-linecap="round" stroke-linejoin="round"/>
<path d="M122.5 2.5C122.5 1.96957 122.711 1.46086 123.086 1.08579C123.461 0.710714 123.97 0.5 124.5 0.5C125.03 0.5 125.539 0.710714 125.914 1.08579C126.289 1.46086 126.5 1.96957 126.5 2.5V9.5" stroke="#6B7A9C" stroke-width="1.2" stroke-linecap="round" stroke-linejoin="round"/>
<path d="M120.5 4.5C120.5 3.96957 120.711 3.46086 121.086 3.08579C121.461 2.71071 121.97 2.5 122.5 2.5C123.03 2.5 123.539 2.71071 123.914 3.08579C124.289 3.46086 124.5 3.96957 124.5 4.5H120.5Z" stroke="#6B7A9C" stroke-width="1.2" stroke-linecap="round" stroke-linejoin="round"/>
</g>
<g clip-path="url(#clip5)">
<path d="M147.499 9.9187C146.899 9.43351 146.41 8.82546 146.065 8.13547C145.72 7.44549 145.527 6.6896 145.499 5.9187C145.518 5.22367 145.674 4.53925 145.958 3.90474C146.242 3.27024 146.649 2.69816 147.155 2.22137C147.247 2.13159 147.37 2.0813 147.498 2.0813C147.627 2.0813 147.75 2.13159 147.841 2.22137C148.348 2.69801 148.755 3.27005 149.039 3.90457C149.324 4.5391 149.48 5.2236 149.499 5.9187C149.47 6.6896 149.277 7.44549 148.932 8.13547C148.587 8.82546 148.098 9.43351 147.499 9.9187V9.9187Z" stroke="#6B7A9C" stroke-width="1.2" stroke-linecap="round" stroke-linejoin="round"/>
<path d="M149.445 5.21866C150.401 4.56983 151.53 4.22624 152.685 4.23332C152.817 4.2335 152.943 4.28572 153.037 4.37863C153.13 4.47153 153.183 4.59759 153.184 4.72932C153.204 5.42256 153.086 6.11286 152.839 6.76069C152.591 7.40851 152.218 8.00115 151.741 8.50466C151.176 9.02971 150.505 9.42759 149.773 9.6715C149.041 9.91541 148.266 9.99968 147.499 9.91866" stroke="#6B7A9C" stroke-width="1.2" stroke-linecap="round" stroke-linejoin="round"/>
<path d="M145.551 5.22601C144.59 4.56672 143.449 4.22005 142.284 4.23334C142.152 4.23334 142.026 4.28549 141.932 4.37841C141.839 4.47133 141.786 4.59749 141.785 4.72934C141.765 5.42261 141.883 6.11292 142.13 6.76074C142.378 7.40856 142.751 8.00118 143.228 8.50467C143.798 9.03062 144.474 9.42881 145.211 9.67265C145.948 9.91649 146.728 10.0004 147.499 9.91867" stroke="#6B7A9C" stroke-width="1.2" stroke-linecap="round" stroke-linejoin="round"/>
<path d="M142.733 7.91801C141.422 8.47735 140.499 9.50001 140.499 10.4187C140.499 12.352 143.857 13.9187 147.999 13.9187C149.525 13.9329 151.044 13.7052 152.499 13.244V10.9187H155.421C155.472 10.7569 155.498 10.5883 155.499 10.4187C155.499 9.27468 154.266 8.23535 152.447 7.59668" stroke="#6B7A9C" stroke-width="1.2" stroke-linecap="round" stroke-linejoin="round"/>
</g>
<g clip-path="url(#clip6)">
<path d="M175.833 4.50134C176.938 4.50134 177.833 3.60591 177.833 2.50134C177.833 1.39677 176.938 0.501343 175.833 0.501343C174.729 0.501343 173.833 1.39677 173.833 2.50134C173.833 3.60591 174.729 4.50134 175.833 4.50134Z" stroke="#6B7A9C" stroke-width="1.2" stroke-linecap="round" stroke-linejoin="round"/>
<path d="M178.833 8.50139C178.834 8.05681 178.735 7.61771 178.545 7.21583C178.355 6.81395 178.078 6.45935 177.734 6.17767C177.39 5.89599 176.988 5.69427 176.556 5.58711C176.125 5.47995 175.675 5.47003 175.239 5.55805C174.548 5.71178 173.931 6.09973 173.492 6.65625C173.054 7.21277 172.821 7.90368 172.833 8.61205V10.0001C172.833 10.1327 172.886 10.2598 172.98 10.3536C173.074 10.4474 173.201 10.5001 173.333 10.5001H174.333V13.0001C174.333 13.1327 174.386 13.2598 174.48 13.3536C174.574 13.4474 174.701 13.5001 174.833 13.5001H176.833C176.966 13.5001 177.093 13.4474 177.187 13.3536C177.281 13.2598 177.333 13.1327 177.333 13.0001V10.5001H178.333C178.466 10.5001 178.593 10.4474 178.687 10.3536C178.781 10.2598 178.833 10.1327 178.833 10.0001V8.50139Z" stroke="#6B7A9C" stroke-width="1.2" stroke-linecap="round" stroke-linejoin="round"/>
<path d="M170.833 6.00001C170.998 5.84196 171.127 5.65119 171.213 5.44002C171.299 5.22885 171.34 5.00196 171.333 4.77401C171.333 3.95534 170.333 3.54668 170.333 2.72801C170.326 2.49993 170.367 2.27287 170.453 2.06155C170.539 1.85023 170.669 1.65937 170.833 1.50134" stroke="#6B7A9C" stroke-width="1.2" stroke-linecap="round" stroke-linejoin="round"/>
<path d="M181.833 6.00001C181.998 5.84181 182.127 5.65082 182.214 5.4394C182.3 5.22799 182.341 5.00085 182.333 4.77268C182.333 3.95534 181.333 3.54668 181.333 2.72801C181.326 2.49993 181.367 2.27287 181.453 2.06155C181.539 1.85023 181.669 1.65937 181.833 1.50134" stroke="#6B7A9C" stroke-width="1.2" stroke-linecap="round" stroke-linejoin="round"/>
<path d="M180.835 9.55205C182.071 10.1834 182.835 11.0481 182.835 12.0014C182.835 13.9347 179.701 15.5014 175.835 15.5014C171.968 15.5014 168.833 13.9334 168.833 12.0001C168.833 11.0461 169.596 10.1821 170.833 9.55072" stroke="#6B7A9C" stroke-width="1.2" stroke-linecap="round" stroke-linejoin="round"/>
</g>
<defs>
<clipPath id="clip0">
<rect width="16" height="16" fill="white"/>
</clipPath>
<clipPath id="clip1">
<rect width="16" height="16" fill="white" transform="translate(28)"/>
</clipPath>
<clipPath id="clip2">
<rect width="16" height="16" fill="white" transform="translate(56)"/>
</clipPath>
<clipPath id="clip3">
<rect width="16" height="16" fill="white" transform="translate(84)"/>
</clipPath>
<clipPath id="clip4">
<rect width="16" height="16" fill="white" transform="translate(112)"/>
</clipPath>
<clipPath id="clip5">
<rect width="16" height="16" fill="white" transform="translate(140)"/>
</clipPath>
<clipPath id="clip6">
<rect width="16" height="16" fill="white" transform="translate(168)"/>
</clipPath>
</defs>
</svg>

<svg width="184" height="16" fill="none" xmlns="http://www.w3.org/2000/svg"><g clip-path="url(#clip0)" stroke="#6B7A9C" stroke-width="1.2" stroke-linecap="round" stroke-linejoin="round"><path d="M13.5.5h-11a2 2 0 00-2 2v3a2 2 0 002 2h11a2 2 0 002-2v-3a2 2 0 00-2-2zm-10 2h9"/><path d="M12.5 5.5h-9a1 1 0 00-1 1v1h11v-1a1 1 0 00-1-1zm-9 4s-1 0-1 1.5 1 1.5 1 3-1 1.5-1 1.5m11-6s-1 0-1 1.5 1 1.5 1 3-1 1.5-1 1.5m-4.5-5v4m-1.732-3l3.464 2m-3.464 0l3.464-2"/></g><g clip-path="url(#clip1)" stroke="#6B7A9C" stroke-width="1.2" stroke-linecap="round" stroke-linejoin="round"><path d="M42 .5H30a1 1 0 00-1 1v13a1 1 0 001 1h12a1 1 0 001-1v-13a1 1 0 00-1-1z"/><path d="M34 2.5h-2a1 1 0 00-1 1v1a1 1 0 001 1h2a1 1 0 001-1v-1a1 1 0 00-1-1zm6 0h-2a1 1 0 00-1 1v1a1 1 0 001 1h2a1 1 0 001-1v-1a1 1 0 00-1-1zm-11 3h14m-14 3h14"/></g><g clip-path="url(#clip2)" stroke="#6B7A9C" stroke-width="1.2" stroke-linecap="round" stroke-linejoin="round"><path d="M70.833 1.917H57.167a.667.667 0 00-.667.666v8.667c0 .368.298.667.667.667h13.666a.667.667 0 00.667-.667V2.583a.667.667 0 00-.667-.666zM61 14.417h6m-3-2.5v2.5"/></g><g clip-path="url(#clip3)" stroke="#6B7A9C" stroke-width="1.2" stroke-linecap="round" stroke-linejoin="round"><path d="M95.5 4v10.5a1 1 0 01-1 1h-5a1 1 0 01-1-1V11A3.5 3.5 0 0192 7.503 3.5 3.5 0 1088.5 4m2 9.503h3"/></g><g clip-path="url(#clip4)" stroke="#6B7A9C" stroke-width="1.2" stroke-linecap="round" stroke-linejoin="round"><path d="M120.5 9.5h7l-.443 2.657a3.995 3.995 0 01-3.946 3.343h-6.222a4 4 0 01-3.946-3.343L112.5 9.5h3"/><path d="M120 13.5h-4a.501.501 0 01-.5-.5V9.5a.998.998 0 011-1h3a1 1 0 011 1V13a.503.503 0 01-.5.5zm2.5-11a2 2 0 014 0v7"/><path d="M120.5 4.5a2 2 0 014 0h-4z"/></g><g clip-path="url(#clip5)" stroke="#6B7A9C" stroke-width="1.2" stroke-linecap="round" stroke-linejoin="round"><path d="M147.499 9.919a5.398 5.398 0 01-2-4 5.283 5.283 0 011.656-3.698.491.491 0 01.686 0 5.266 5.266 0 011.658 3.697 5.411 5.411 0 01-2 4v0z"/><path d="M149.445 5.219a5.706 5.706 0 013.24-.986.501.501 0 01.499.496 5.276 5.276 0 01-1.443 3.776 5.397 5.397 0 01-4.242 1.414m-1.948-4.693a5.661 5.661 0 00-3.267-.993.5.5 0 00-.499.496 5.276 5.276 0 001.443 3.776 5.447 5.447 0 004.271 1.414"/><path d="M142.733 7.918c-1.311.56-2.234 1.582-2.234 2.5 0 1.934 3.358 3.5 7.5 3.5a14.449 14.449 0 004.5-.674v-2.325h2.922c.051-.162.077-.33.078-.5 0-1.144-1.233-2.184-3.052-2.822"/></g><g clip-path="url(#clip6)" stroke="#6B7A9C" stroke-width="1.2" stroke-linecap="round" stroke-linejoin="round"><path d="M175.833 4.501a2 2 0 100-4 2 2 0 000 4zm3 4a2.993 2.993 0 00-1.099-2.323 2.998 2.998 0 00-2.495-.62 3.076 3.076 0 00-2.406 3.054V10a.5.5 0 00.5.5h1V13a.5.5 0 00.5.5h2a.5.5 0 00.5-.5v-2.5h1a.5.5 0 00.5-.5V8.501zm-8-2.501a1.621 1.621 0 00.5-1.226c0-.819-1-1.227-1-2.046a1.635 1.635 0 01.5-1.227m11 4.499a1.62 1.62 0 00.5-1.227c0-.818-1-1.226-1-2.045a1.635 1.635 0 01.5-1.227"/><path d="M180.835 9.552c1.236.631 2 1.496 2 2.45 0 1.933-3.134 3.5-7 3.5-3.867 0-7.002-1.569-7.002-3.502 0-.954.763-1.818 2-2.45"/></g><defs><clipPath id="clip0"><path fill="#fff" d="M0 0h16v16H0z"/></clipPath><clipPath id="clip1"><path fill="#fff" transform="translate(28)" d="M0 0h16v16H0z"/></clipPath><clipPath id="clip2"><path fill="#fff" transform="translate(56)" d="M0 0h16v16H0z"/></clipPath><clipPath id="clip3"><path fill="#fff" transform="translate(84)" d="M0 0h16v16H0z"/></clipPath><clipPath id="clip4"><path fill="#fff" transform="translate(112)" d="M0 0h16v16H0z"/></clipPath><clipPath id="clip5"><path fill="#fff" transform="translate(140)" d="M0 0h16v16H0z"/></clipPath><clipPath id="clip6"><path fill="#fff" transform="translate(168)" d="M0 0h16v16H0z"/></clipPath></defs></svg>
